packages/blockchain-info-components/src/Images/img/mastercard-logo.svg

<svg fill="none" height="24" viewBox="0 0 32 24" width="32" xmlns="http://www.w3.org/2000/svg"><rect fill="#fff" height="24" rx="4" width="32"/><path d="m19.1664 6.51562h-6.3311v10.34048h6.3311z" fill="#ff5f00"/><path d="m13.4875 11.6863c-.0008-.9957.2249-1.97857.6601-2.87416.4351-.89559 1.0682-1.68046 1.8515-2.29522-.9701-.76239-2.1351-1.23648-3.3619-1.36808s-2.4659.08461-3.57559.6239c-1.10973.53929-2.04535 1.37991-2.69992 2.42579-.65458 1.04588-1.0017 2.25477-1.0017 3.48867 0 1.2338.34712 2.4427 1.0017 3.4886.65457 1.0459 1.59019 1.8865 2.69992 2.4258 1.10969.5393 2.34879.7555 3.57559.6239s2.3918-.6057 3.3619-1.3681c-.7835-.6149-1.4168-1.4001-1.8519-2.296-.4352-.8959-.6608-1.8791-.6597-2.8751z" fill="#eb001b"/><g fill="#f79e1b"><path d="m26.0108 15.7616v-.2119h.0913v-.0438h-.2173v.0438h.0858v.2119zm.422 0v-.2557h-.0658l-.0767.1826-.0767-.1826h-.0658v.2557h.0475v-.1936l.0712.1662h.0494l.0712-.1662v.1936z"/><path d="m26.6391 11.6869c0 1.2339-.3472 2.4429-1.0019 3.4888-.6547 1.046-1.5905 1.8866-2.7003 2.4258-1.1099.5392-2.3491.7553-3.576.6235-1.2268-.1318-2.3919-.6061-3.3619-1.3688.783-.6153 1.4159-1.4004 1.8512-2.296.4352-.8956.6614-1.8784.6614-2.8742s-.2262-1.9786-.6614-2.87424c-.4353-.89564-1.0682-1.68073-1.8512-2.29603.97-.76264 2.1351-1.23695 3.3619-1.36874 1.2269-.13179 2.4661.08428 3.576.62349 1.1098.53922 2.0456 1.37982 2.7003 2.42574.6547 1.04591 1.0019 2.25488 1.0019 3.48888z"/></g></svg>

<svg width="32" height="24" viewBox="0 0 32 24" fill="none" xmlns="http://www.w3.org/2000/svg">
<rect width="32" height="24" rx="4" fill="white"/>
<path d="M19.1664 6.51562H12.8353V16.8561H19.1664V6.51562Z" fill="#FF5F00"/>
<path d="M13.4875 11.6863C13.4867 10.6906 13.7124 9.70773 14.1476 8.81214C14.5827 7.91655 15.2158 7.13168 15.9991 6.51692C15.029 5.75453 13.864 5.28044 12.6372 5.14884C11.4104 5.01724 10.1713 5.23345 9.06161 5.77274C7.95188 6.31203 7.01626 7.15265 6.36169 8.19853C5.70711 9.24441 5.35999 10.4533 5.35999 11.6872C5.35999 12.921 5.70711 14.1299 6.36169 15.1758C7.01626 16.2217 7.95188 17.0623 9.06161 17.6016C10.1713 18.1409 11.4104 18.3571 12.6372 18.2255C13.864 18.0939 15.029 17.6198 15.9991 16.8574C15.2156 16.2425 14.5823 15.4573 14.1472 14.5614C13.712 13.6655 13.4864 12.6823 13.4875 11.6863Z" fill="#EB001B"/>
<path d="M26.0108 15.7616V15.5497H26.1021V15.5059H25.8848V15.5497H25.9706V15.7616H26.0108ZM26.4328 15.7616V15.5059H26.367L26.2903 15.6885L26.2136 15.5059H26.1478V15.7616H26.1953V15.568L26.2665 15.7342H26.3159L26.3871 15.568V15.7616H26.4328Z" fill="#F79E1B"/>
<path d="M26.6391 11.6869C26.6391 12.9208 26.2919 14.1298 25.6372 15.1757C24.9825 16.2217 24.0467 17.0623 22.9369 17.6015C21.827 18.1407 20.5878 18.3568 19.3609 18.225C18.1341 18.0932 16.969 17.6189 15.999 16.8562C16.782 16.2409 17.4149 15.4558 17.8502 14.5602C18.2854 13.6646 18.5116 12.6818 18.5116 11.686C18.5116 10.6902 18.2854 9.7074 17.8502 8.81176C17.4149 7.91612 16.782 7.13103 15.999 6.51573C16.969 5.75309 18.1341 5.27878 19.3609 5.14699C20.5878 5.0152 21.827 5.23127 22.9369 5.77048C24.0467 6.3097 24.9825 7.1503 25.6372 8.19622C26.2919 9.24213 26.6391 10.4511 26.6391 11.6851V11.6869Z" fill="#F79E1B"/>
</svg>
